vendor/shopware/storefront/Resources/app/storefront/dist/assets/icon/solid/arrow-medium-up.svg

<svg xmlns="http://www.w3.org/2000/svg" xmlns:xlink="http://www.w3.org/1999/xlink" width="16" height="16" viewBox="0 0 16 16">
  <defs>
    <path id="icons-small-arrow-medium-up-a" d="M4.70710678,4.29289322 C4.31658249,3.90236893 3.68341751,3.90236893 3.29289322,4.29289322 C2.90236893,4.68341751 2.90236893,5.31658249 3.29289322,5.70710678 L7.29289322,9.70710678 C7.68341751,10.0976311 8.31658249,10.0976311 8.70710678,9.70710678 L12.7071068,5.70710678 C13.0976311,5.31658249 13.0976311,4.68341751 12.7071068,4.29289322 C12.3165825,3.90236893 11.6834175,3.90236893 11.2928932,4.29289322 L8,7.58578644 L4.70710678,4.29289322 Z"/>
  </defs>
  <use fill="#758CA3" fill-rule="evenodd" transform="matrix(1 0 0 -1 0 14)" xlink:href="#icons-small-arrow-medium-up-a"/>
</svg>

<svg xmlns="http://www.w3.org/2000/svg" xmlns:xlink="http://www.w3.org/1999/xlink" width="16" height="16" viewBox="0 0 16 16"><defs><path id="icons-small-arrow-medium-up-a" d="M4.7071 4.2929c-.3905-.3905-1.0237-.3905-1.4142 0-.3905.3905-.3905 1.0237 0 1.4142l4 4c.3905.3905 1.0237.3905 1.4142 0l4-4c.3905-.3905.3905-1.0237 0-1.4142-.3905-.3905-1.0237-.3905-1.4142 0L8 7.5858l-3.2929-3.293z"/></defs><use fill="#758CA3" fill-rule="evenodd" transform="matrix(1 0 0 -1 0 14)" xlink:href="#icons-small-arrow-medium-up-a"/></svg>
